**kern	**silbe	**harmony	**chordsym	**phrase	**timestamp	**leadinstrument
*ICvox	*	*M4/4	*M4/4	*	*	*
*F:	*	*d:	*d:	*d:	*d:	*d:
*M4/4	*	*	*	*	*	*
*clefGv2	*	*	*	*	*	*
r;	.	1r;	r	.	0	r
=1	=1	=1	=1	=1	=1	=1
*	*	*>A_intro	*>A_intro	*>A_intro	*>A_intro	*>A_intro
1r	.	1Dm	D:5 (D A)	newline	0.395	guitar
=2	=2	=2	=2	=2	=2	=2
1r	.	1Dm	D:5 (D A)	.	.	guitar
=3	=3	=3	=3	=3	=3	=3
1r	.	1Dm	D:min (D F A)	.	.	guitar
=4	=4	=4	=4	=4	=4	=4
1r	.	1Dm	D:min (D F A)	.	.	guitar
=5	=5	=5	=5	=5	=5	=5
*	*	*>B_verse	*>B_verse	*>B_verse	*>B_verse	*>B_verse
1r	.	1Dm	D:min (D F A)	newline	12.456	voice
=6	=6	=6	=6	=6	=6	=6
1r	.	1Dm	D:min (D F A)	.	.	voice
=7	=7	=7	=7	=7	=7	=7
1r	.	1CM	C:maj (C E G)	.	.	voice
=8	=8	=8	=8	=8	=8	=8
1r	.	1CM	C:maj (C E G)	.	.	voice
=9	=9	=9	=9	=9	=9	=9
1r	.	1Dm	D:min (D F A)	newline	19.206	voice
=10	=10	=10	=10	=10	=10	=10
1r	.	1Dm	D:min (D F A)	.	.	voice
=11	=11	=11	=11	=11	=11	=11
1r	.	1CM	C:maj (C E G)	.	.	voice
=12	=12	=12	=12	=12	=12	=12
1r	.	1CM	C:maj (C E G)	.	.	voice
=13	=13	=13	=13	=13	=13	=13
4r	.	1Gm	G:min (G B- D)	newline	25.999	voice
4D	_	.	.	.	.	.
4F	_	.	.	.	.	.
4G	_	.	.	.	.	.
=14	=14	=14	=14	=14	=14	=14
8A	_	1Gm	G:min (G B- D)	.	.	voice
[8A	_	.	.	.	.	.
8A]	_	.	.	.	.	.
[8G	_	.	.	.	.	.
4G]	_	.	.	.	.	.
8F	_	.	.	.	.	.
[8G	_	.	.	.	.	.
=15	=15	=15	=15	=15	=15	=15
4G]	_	1Dm	D:min (D F A)	.	.	voice
4E	_	.	.	.	.	.
4E	_	.	.	.	.	.
8D	_	.	.	.	.	.
[8E	_	.	.	.	.	.
=16	=16	=16	=16	=16	=16	=16
8.E]	_	1Dm	D:min (D F A)	.	.	voice
16r	.	.	.	.	.	.
4r	.	.	.	.	.	.
2r	.	.	.	.	.	.
=17	=17	=17	=17	=17	=17	=17
4r	.	1Gm	G:min (G B- D)	newline	32.819	voice
4D	_	.	.	.	.	.
4F	_	.	.	.	.	.
8G	_	.	.	.	.	.
8G	_	.	.	.	.	.
=18	=18	=18	=18	=18	=18	=18
8A	_	1Gm	G:min (G B- D)	.	.	voice
[8A	_	.	.	.	.	.
8A]	_	.	.	.	.	.
[8G	_	.	.	.	.	.
4G]	_	.	.	.	.	.
4F	_	.	.	.	.	.
=19	=19	=19	=19	=19	=19	=19
4G	_	1Dm	D:min (D F A)	.	.	voice
4E	_	.	.	.	.	.
8E	_	.	.	.	.	.
[8D	_	.	.	.	.	.
8D]	_	.	.	.	.	.
[8E	_	.	.	.	.	.
=20	=20	=20	=20	=20	=20	=20
8.E]	_	1GM	G:maj (G B D)	.	.	voice
16r	.	.	.	.	.	.
4r	.	.	.	.	.	.
2r	.	.	.	.	.	.
=21	=21	=21	=21	=21	=21	=21
4r	.	1GM	G:maj (G B D)	newline	39.538	guitar
8B-	_	.	.	.	.	.
[8B-	_	.	.	.	.	.
4B-]	_	.	.	.	.	.
4B-	_	.	.	.	.	.
=22	=22	=22	=22	=22	=22	=22
4B-	_	1GM	G:maj (G B D)	.	.	guitar
8B-	_	.	.	.	.	.
[8c	_	.	.	.	.	.
4c]	_	.	.	.	.	.
8B-	_	.	.	.	.	.
[8A	_	.	.	.	.	.
=23	=23	=23	=23	=23	=23	=23
*	*	*>C_prechorus	*>C_prechorus	*>C_prechorus	*>C_prechorus	*>C_prechorus
8A]	_	1Dm	D:min (D F A)	newline	43.166	voice
[8A	_	.	.	.	.	.
4A]	_	.	.	.	.	.
4F	_	.	.	.	.	.
8G	_	.	.	.	.	.
8A	_	.	.	.	.	.
=24	=24	=24	=24	=24	=24	=24
4r	.	1Dm	D:min (D F A)	.	.	voice
4r	.	.	.	.	.	.
2r	.	.	.	.	.	.
=25	=25	=25	=25	=25	=25	=25
4r	.	1D-m	D-:min (D- F- A-)	.	.	voice
4B-	_	.	.	.	.	.
8B-	_	.	.	.	.	.
[8B-	_	.	.	.	.	.
8B-]	_	.	.	.	.	.
[8B-	_	.	.	.	.	.
=26	=26	=26	=26	=26	=26	=26
4B-]	_	1D-m	D-:min (D- F- A-)	.	.	voice
4B-	_	.	.	.	.	.
4c	_	.	.	.	.	.
8B-	_	.	.	.	.	.
[8B-	_	.	.	.	.	.
=27	=27	=27	=27	=27	=27	=27
*	*	*M3/4	*M3/4	*M3/4	*M3/4	*M3/4
8B-]	_	4FM	F:maj (F A C)	newline	49.767	voice
[8A	_	.	.	.	.	.
8A]	_	2GM	G:maj (G B D)	.	.	voice
[8A	_	.	.	.	.	.
2A]	_	.	.	.	.	.
=28	=28	=28	=28	=28	=28	=28
.	.	2E-M	E-:maj (E- G B-)	.	.	voice
=28	=28	=28	=28	=28	=28	=28
2B	_	.	.	.	.	.
.	.	4FM	F:maj (F A C)	.	.	voice
=29	=29	=29	=29	=29	=29	=29
2r	.	2.E-M	E-:maj (E- G B-)	.	.	voice
=29	=29	=29	=29	=29	=29	=29
2r	.	.	.	.	.	.
=30	=30	=30	=30	=30	=30	=30
*	*	*M4/4	*M4/4	*M4/4	*M4/4	*M4/4
.	.	1N	N	.	.	voice
8d	_	.	.	.	.	.
8d	_	.	.	.	.	.
8d	_	.	.	.	.	.
[8d	_	.	.	.	.	.
=30	=30	=30	=30	=30	=30	=30
8d]	_	.	.	.	.	.
8r	.	.	.	.	.	.
=31	=31	=31	=31	=31	=31	=31
*	*	*>D_chorus	*>D_chorus	*>D_chorus	*>D_chorus	*>D_chorus
4r	.	1Dm	D:min (D F A)	newline	55.481	voice
2r	.	.	.	.	.	.
=31	=31	=31	=31	=31	=31	=31
2r	.	.	.	.	.	.
=32	=32	=32	=32	=32	=32	=32
.	.	1GM	G:maj (G B D)	.	.	voice
8d	_	.	.	.	.	.
8d	_	.	.	.	.	.
8d	_	.	.	.	.	.
[8c#	_	.	.	.	.	.
=32	=32	=32	=32	=32	=32	=32
8c#]	_	.	.	.	.	.
8r	.	.	.	.	.	.
=33	=33	=33	=33	=33	=33	=33
4r	.	1Dm	D:min (D F A)	.	.	voice
2r	.	.	.	.	.	.
=33	=33	=33	=33	=33	=33	=33
2r	.	.	.	.	.	.
=34	=34	=34	=34	=34	=34	=34
.	.	1GM	G:maj (G B D)	.	.	voice
8c#	_	.	.	.	.	.
[8c#	_	.	.	.	.	.
8c#]	_	.	.	.	.	.
8r	.	.	.	.	.	.
=34	=34	=34	=34	=34	=34	=34
4B	_	.	.	.	.	.
=35	=35	=35	=35	=35	=35	=35
4r	.	1Dm	D:min (D F A)	newline	62.078	voice
4A	_	.	.	.	.	.
4r	.	.	.	.	.	.
=35	=35	=35	=35	=35	=35	=35
4G	_	.	.	.	.	.
=36	=36	=36	=36	=36	=36	=36
4r	.	1GM	G:maj (G B D)	.	.	voice
2r	.	.	.	.	.	.
=36	=36	=36	=36	=36	=36	=36
8r	.	.	.	.	.	.
[8d	_	.	.	.	.	.
=37	=37	=37	=37	=37	=37	=37
8d]	_	1Dm	D:min (D F A)	.	.	voice
8d	_	.	.	.	.	.
8d	_	.	.	.	.	.
8d	_	.	.	.	.	.
8d	_	.	.	.	.	.
[8f	_	.	.	.	.	.
=37	=37	=37	=37	=37	=37	=37
8f]	_	.	.	.	.	.
[8d	_	.	.	.	.	.
=38	=38	=38	=38	=38	=38	=38
8d]	_	1AM	A:maj (A C# E)	.	.	voice
[8d	_	.	.	.	.	.
4d]	_	.	.	.	.	.
4r	.	.	.	.	.	.
=38	=38	=38	=38	=38	=38	=38
2r	.	.	.	.	.	.
=39	=39	=39	=39	=39	=39	=39
*	*	*>E_trans	*>E_trans	*>E_trans	*>E_trans	*>E_trans
.	.	2Dm	D:min (D F A)	newline	68.675	guitar
8A	_	.	.	.	.	.
8A	_	.	.	.	.	.
8A	_	2CM	C:maj (C E G)	.	.	guitar
[8B	_	.	.	.	.	.
=39	=39	=39	=39	=39	=39	=39
8B]	_	.	.	.	.	.
8r	.	.	.	.	.	.
=40	=40	=40	=40	=40	=40	=40
4r	.	2B-M	B-:maj (B- D F)	.	.	guitar
2r	.	.	.	.	.	.
.	.	2CM	C:maj (C E G)	.	.	guitar
=40	=40	=40	=40	=40	=40	=40
8r	.	.	.	.	.	.
[8d	_	.	.	.	.	.
=41	=41	=41	=41	=41	=41	=41
8d]	_	2Dm	D:min (D F A)	.	.	guitar
8d	_	.	.	.	.	.
8d	_	.	.	.	.	.
8d	_	.	.	.	.	.
8d	_	2CM	C:maj (C E G)	.	.	guitar
[8f	_	.	.	.	.	.
=41	=41	=41	=41	=41	=41	=41
8f]	_	.	.	.	.	.
8d	_	.	.	.	.	.
=42	=42	=42	=42	=42	=42	=42
4d	_	2B-M	B-:maj (B- D F)	.	.	guitar
4r	.	.	.	.	.	.
4r	.	2CM	C:maj (C E G)	.	.	guitar
=42	=42	=42	=42	=42	=42	=42
8r	.	.	.	.	.	.
[8A	_	.	.	.	.	.
=43	=43	=43	=43	=43	=43	=43
*	*	*>B_verse	*>B_verse	*>B_verse	*>B_verse	*>B_verse
8A]	_	1Dm	D:min (D F A)	newline	75.048	voice
8A	_	.	.	.	.	.
8A	_	.	.	.	.	.
8G	_	.	.	.	.	.
8G#	_	.	.	.	.	.
[8A	_	.	.	.	.	.
=43	=43	=43	=43	=43	=43	=43
8A]	_	.	.	.	.	.
8r	.	.	.	.	.	.
=44	=44	=44	=44	=44	=44	=44
4r	.	1Dm	D:min (D F A)	.	.	voice
4r	.	.	.	.	.	.
4C#	_	.	.	.	.	.
=44	=44	=44	=44	=44	=44	=44
4D	_	.	.	.	.	.
=45	=45	=45	=45	=45	=45	=45
4r	.	1CM	C:maj (C E G)	.	.	voice
2r	.	.	.	.	.	.
=45	=45	=45	=45	=45	=45	=45
2r	.	.	.	.	.	.
=46	=46	=46	=46	=46	=46	=46
.	.	1CM	C:maj (C E G)	.	.	voice
4r	.	.	.	.	.	.
4D	_	.	.	.	.	.
=46	=46	=46	=46	=46	=46	=46
4D	_	.	.	.	.	.
=47	=47	=47	=47	=47	=47	=47
4r	.	1Dm	D:min (D F A)	newline	81.618	voice
2r	.	.	.	.	.	.
=47	=47	=47	=47	=47	=47	=47
1r	.	.	.	.	.	.
=48	=48	=48	=48	=48	=48	=48
.	.	1Dm	D:min (D F A)	.	.	voice
=48	=48	=48	=48	=48	=48	=48
4.r	.	.	.	.	.	.
=49	=49	=49	=49	=49	=49	=49
.	.	1CM	C:maj (C E G)	.	.	voice
8D	_	.	.	.	.	.
4F	_	.	.	.	.	.
8G	_	.	.	.	.	.
8A	_	.	.	.	.	.
=49	=49	=49	=49	=49	=49	=49
4.A	_	.	.	.	.	.
=50	=50	=50	=50	=50	=50	=50
.	.	1CM	C:maj (C E G)	.	.	voice
8r	.	.	.	.	.	.
8r	.	.	.	.	.	.
8G	_	.	.	.	.	.
4F	_	.	.	.	.	.
=50	=50	=50	=50	=50	=50	=50
8G	_	.	.	.	.	.
8E	_	.	.	.	.	.
=51	=51	=51	=51	=51	=51	=51
8.E	_	1Gm	G:min (G B- D)	newline	88.2	voice
16r	.	.	.	.	.	.
4E	_	.	.	.	.	.
16r	.	.	.	.	.	.
8D	_	.	.	.	.	.
[16E	_	.	.	.	.	.
=51	=51	=51	=51	=51	=51	=51
4r	.	.	.	.	.	.
=52	=52	=52	=52	=52	=52	=52
4r	.	1Gm	G:min (G B- D)	.	.	voice
2r	.	.	.	.	.	.
=52	=52	=52	=52	=52	=52	=52
4r	.	.	.	.	.	.
=53	=53	=53	=53	=53	=53	=53
4D	_	1Dm	D:min (D F A)	.	.	voice
4E]	_	.	.	.	.	.
4F	_	.	.	.	.	.
=53	=53	=53	=53	=53	=53	=53
6A	_	.	.	.	.	.
[12A	_	.	.	.	.	.
=54	=54	=54	=54	=54	=54	=54
4A]	_	1Dm	D:min (D F A)	.	.	voice
4G	_	.	.	.	.	.
8.F	_	.	.	.	.	.
[16G	_	.	.	.	.	.
=54	=54	=54	=54	=54	=54	=54
8.G]	_	.	.	.	.	.
[16E	_	.	.	.	.	.
=55	=55	=55	=55	=55	=55	=55
8.E]	_	1Gm	G:min (G B- D)	newline	94.71	voice
16r	.	.	.	.	.	.
4E	_	.	.	.	.	.
16r	.	.	.	.	.	.
8D	_	.	.	.	.	.
[16E	_	.	.	.	.	.
=55	=55	=55	=55	=55	=55	=55
4E]	_	.	.	.	.	.
=56	=56	=56	=56	=56	=56	=56
4r	.	1Gm	G:min (G B- D)	.	.	voice
2r	.	.	.	.	.	.
=56	=56	=56	=56	=56	=56	=56
4r	.	.	.	.	.	.
=57	=57	=57	=57	=57	=57	=57
4B-	_	1Dm	D:min (D F A)	.	.	voice
4B-	_	.	.	.	.	.
4B-	_	.	.	.	.	.
=57	=57	=57	=57	=57	=57	=57
24r	.	.	.	.	.	.
8B-	_	.	.	.	.	.
[12B-	_	.	.	.	.	.
=58	=58	=58	=58	=58	=58	=58
4B-]	_	1GM	G:maj (G B D)	.	.	voice
4c	_	.	.	.	.	.
8.B-	_	.	.	.	.	.
[16B-	_	.	.	.	.	.
=58	=58	=58	=58	=58	=58	=58
4B-]	_	.	.	.	.	.
=59	=59	=59	=59	=59	=59	=59
4A	_	1GM	G:maj (G B D)	newline	101.233	guitar
8r	.	.	.	.	.	.
8F	_	.	.	.	.	.
8G	_	.	.	.	.	.
[8A	_	.	.	.	.	.
=59	=59	=59	=59	=59	=59	=59
4A]	_	.	.	.	.	.
=60	=60	=60	=60	=60	=60	=60
*	*	*>C_prechorus	*>C_prechorus	*>C_prechorus	*>C_prechorus	*>C_prechorus
4r	.	1Dm	D:min (D F A)	newline	102.934	voice
2r	.	.	.	.	.	.
=60	=60	=60	=60	=60	=60	=60
4r	.	.	.	.	.	.
=61	=61	=61	=61	=61	=61	=61
4B-	_	1Dm	D:min (D F A)	.	.	voice
4B-	_	.	.	.	.	.
4B-	_	.	.	.	.	.
=61	=61	=61	=61	=61	=61	=61
24r	.	.	.	.	.	.
8B-	_	.	.	.	.	.
[12B-	_	.	.	.	.	.
=62	=62	=62	=62	=62	=62	=62
4B-]	_	1D-m	D-:min (D- F- A-)	.	.	voice
4c	_	.	.	.	.	.
8.B-	_	.	.	.	.	.
[16B-	_	.	.	.	.	.
=62	=62	=62	=62	=62	=62	=62
4B-]	_	.	.	.	.	.
=63	=63	=63	=63	=63	=63	=63
4A	_	1D-m	D-:min (D- F- A-)	.	.	voice
2A	_	.	.	.	.	.
=63	=63	=63	=63	=63	=63	=63
2.B	_	.	.	.	.	.
=64	=64	=64	=64	=64	=64	=64
*	*	*M3/4	*M3/4	*M3/4	*M3/4	*M3/4
.	.	4FM	F:maj (F A C)	newline	109.492	voice
.	.	2GM	G:maj (G B D)	.	.	voice
4r	.	.	.	.	.	.
=64	=64	=64	=64	=64	=64	=64
2r	.	2E-M	E-:maj (E- G B-)	.	.	voice
8.d	_	4FM	F:maj (F A C)	.	.	voice
[16d	_	.	.	.	.	.
=66	=66	=66	=66	=66	=66	=66
16d]	_	2.E-M	E-:maj (E- G B-)	.	.	voice
16r	.	.	.	.	.	.
8d	_	.	.	.	.	.
=65	=65	=65	=65	=65	=65	=65
2d	_	.	.	.	.	.
=67	=67	=67	=67	=67	=67	=67
*	*	*M4/4	*M4/4	*M4/4	*M4/4	*M4/4
2r	.	1N	N	.	.	voice
=66	=66	=66	=66	=66	=66	=66
2r	.	.	.	.	.	.
=68	=68	=68	=68	=68	=68	=68
*	*	*>D_chorus	*>D_chorus	*>D_chorus	*>D_chorus	*>D_chorus
4d	_	1Dm	D:min (D F A)	newline	115.063	voice
8d	_	.	.	.	.	.
8d	_	.	.	.	.	.
=67	=67	=67	=67	=67	=67	=67
2c#	_	.	.	.	.	.
=69	=69	=69	=69	=69	=69	=69
2r	.	1GM	G:maj (G B D)	.	.	voice
=68	=68	=68	=68	=68	=68	=68
2r	.	.	.	.	.	.
=70	=70	=70	=70	=70	=70	=70
12r	.	1Dm	D:min (D F A)	.	.	voice
6c#	_	.	.	.	.	.
12r	.	.	.	.	.	.
6c#	_	.	.	.	.	.
=69	=69	=69	=69	=69	=69	=69
4B	_	.	.	.	.	.
4r	.	.	.	.	.	.
=71	=71	=71	=71	=71	=71	=71
4A	_	1GM	G:maj (G B D)	.	.	voice
4r	.	.	.	.	.	.
=70	=70	=70	=70	=70	=70	=70
4G	_	.	.	.	.	.
4r	.	.	.	.	.	.
=72	=72	=72	=72	=72	=72	=72
2r	.	1Dm	D:min (D F A)	newline	121.6	voice
=71	=71	=71	=71	=71	=71	=71
4r	.	.	.	.	.	.
8d	_	.	.	.	.	.
[8d	_	.	.	.	.	.
=73	=73	=73	=73	=73	=73	=73
8d]	_	1GM	G:maj (G B D)	.	.	voice
8d	_	.	.	.	.	.
8d	_	.	.	.	.	.
8d	_	.	.	.	.	.
=72	=72	=72	=72	=72	=72	=72
4f	_	.	.	.	.	.
4d	_	.	.	.	.	.
=74	=74	=74	=74	=74	=74	=74
4d	_	1Dm	D:min (D F A)	.	.	voice
4r	.	.	.	.	.	.
=73	=73	=73	=73	=73	=73	=73
2r	.	.	.	.	.	.
=75	=75	=75	=75	=75	=75	=75
8A	_	1AM	A:maj (A C# E)	.	.	voice
8A	_	.	.	.	.	.
8A	_	.	.	.	.	.
[8B	_	.	.	.	.	.
=74	=74	=74	=74	=74	=74	=74
8B]	_	.	.	.	.	.
8r	.	.	.	.	.	.
4r	.	.	.	.	.	.
=76	=76	=76	=76	=76	=76	=76
*	*	*>E_trans	*>E_trans	*>E_trans	*>E_trans	*>E_trans
2r	.	2Dm	D:min (D F A)	newline	128.07	guitar
=75	=75	=75	=75	=75	=75	=75
4r	.	2CM	C:maj (C E G)	.	.	guitar
8d	_	.	.	.	.	.
[8d	_	.	.	.	.	.
=77	=77	=77	=77	=77	=77	=77
8d]	_	2B-M	B-:maj (B- D F)	.	.	guitar
8d	_	.	.	.	.	.
8d	_	.	.	.	.	.
8d	_	.	.	.	.	.
=76	=76	=76	=76	=76	=76	=76
4f	_	2CM	C:maj (C E G)	.	.	guitar
4d	_	.	.	.	.	.
=78	=78	=78	=78	=78	=78	=78
4d	_	2Dm	D:min (D F A)	.	.	guitar
4r	.	.	.	.	.	.
=77	=77	=77	=77	=77	=77	=77
4r	.	2CM	C:maj (C E G)	.	.	guitar
8A	_	.	.	.	.	.
8A	_	.	.	.	.	.
=79	=79	=79	=79	=79	=79	=79
8A	_	2B-M	B-:maj (B- D F)	.	.	guitar
8G	_	.	.	.	.	.
8F	_	.	.	.	.	.
[8A	_	.	.	.	.	.
=78	=78	=78	=78	=78	=78	=78
8A]	_	2CM	C:maj (C E G)	.	.	guitar
8r	.	.	.	.	.	.
4r	.	.	.	.	.	.
=80	=80	=80	=80	=80	=80	=80
*	*	*>D_chorus	*>D_chorus	*>D_chorus	*>D_chorus	*>D_chorus
4r	.	1Dm	D:min (D F A)	newline	134.462	voice
8C	_	.	.	.	.	.
8D	_	.	.	.	.	.
=79	=79	=79	=79	=79	=79	=79
4D	_	.	.	.	.	.
4r	.	.	.	.	.	.
=81	=81	=81	=81	=81	=81	=81
2r	.	1GM	G:maj (G B D)	.	.	voice
=80	=80	=80	=80	=80	=80	=80
2r	.	.	.	.	.	.
=82	=82	=82	=82	=82	=82	=82
4r	.	1Dm	D:min (D F A)	.	.	voice
4D	_	.	.	.	.	.
=81	=81	=81	=81	=81	=81	=81
4D	_	.	.	.	.	.
4r	.	.	.	.	.	.
=83	=83	=83	=83	=83	=83	=83
2r	.	1GM	G:maj (G B D)	.	.	voice
=82	=82	=82	=82	=82	=82	=82
1r	.	.	.	.	.	.
=84	=84	=84	=84	=84	=84	=84
.	.	1Dm	D:min (D F A)	newline	140.99	voice
=83	=83	=83	=83	=83	=83	=83
4r	.	.	.	.	.	.
8d	_	.	.	.	.	.
[8d	_	.	.	.	.	.
=85	=85	=85	=85	=85	=85	=85
8d]	_	1GM	G:maj (G B D)	.	.	voice
8d	_	.	.	.	.	.
8d	_	.	.	.	.	.
8d	_	.	.	.	.	.
=84	=84	=84	=84	=84	=84	=84
4f	_	.	.	.	.	.
4d	_	.	.	.	.	.
=86	=86	=86	=86	=86	=86	=86
4d	_	1Dm	D:min (D F A)	.	.	voice
4r	.	.	.	.	.	.
=85	=85	=85	=85	=85	=85	=85
2r	.	.	.	.	.	.
=87	=87	=87	=87	=87	=87	=87
8A	_	1AM	A:maj (A C# E)	.	.	voice
8A	_	.	.	.	.	.
8A	_	.	.	.	.	.
[8B	_	.	.	.	.	.
=86	=86	=86	=86	=86	=86	=86
8B]	_	.	.	.	.	.
8r	.	.	.	.	.	.
4r	.	.	.	.	.	.
=88	=88	=88	=88	=88	=88	=88
*	*	*>E_outro	*>E_outro	*>E_outro	*>E_outro	*>E_outro
2r	.	2Dm	D:min (D F A)	newline	147.501	voice
=87	=87	=87	=87	=87	=87	=87
4r	.	2CM	C:maj (C E G)	.	.	voice
8d	_	.	.	.	.	.
[8d	_	.	.	.	.	.
=89	=89	=89	=89	=89	=89	=89
8d]	_	2B-M	B-:maj (B- D F)	.	.	voice
8d	_	.	.	.	.	.
8d	_	.	.	.	.	.
8d	_	.	.	.	.	.
=88	=88	=88	=88	=88	=88	=88
4f	_	2CM	C:maj (C E G)	.	.	voice
4d	_	.	.	.	.	.
=90	=90	=90	=90	=90	=90	=90
4d	_	2Dm	D:min (D F A)	.	.	voice
4r	.	.	.	.	.	.
=89	=89	=89	=89	=89	=89	=89
4r	.	2CM	C:maj (C E G)	.	.	voice
8A	_	.	.	.	.	.
8A	_	.	.	.	.	.
=91	=91	=91	=91	=91	=91	=91
8A	_	2B-M	B-:maj (B- D F)	.	.	voice
8G	_	.	.	.	.	.
8F	_	.	.	.	.	.
[8A	_	.	.	.	.	.
=90	=90	=90	=90	=90	=90	=90
8A]	_	2CM	C:maj (C E G)	.	.	voice
8r	.	.	.	.	.	.
4r	.	.	.	.	.	.
=92	=92	=92	=92	=92	=92	=92
4r	.	2Dm	D:min (D F A)	newline	153.98	voice
8C	_	.	.	.	.	.
8D	_	.	.	.	.	.
=91	=91	=91	=91	=91	=91	=91
4D	_	2CM	C:maj (C E G)	.	.	voice
4r	.	.	.	.	.	.
=93	=93	=93	=93	=93	=93	=93
2r	.	2B-M	B-:maj (B- D F)	.	.	voice
=92	=92	=92	=92	=92	=92	=92
2r	.	2CM	C:maj (C E G)	.	.	voice
=94	=94	=94	=94	=94	=94	=94
4r	.	2Dm	D:min (D F A)	.	.	voice
4D	_	.	.	.	.	.
=93	=93	=93	=93	=93	=93	=93
4D	_	2CM	C:maj (C E G)	.	.	voice
4r	.	.	.	.	.	.
=95	=95	=95	=95	=95	=95	=95
2r	.	2B-M	B-:maj (B- D F)	.	.	voice
=94	=94	=94	=94	=94	=94	=94
2r	.	2CM	C:maj (C E G)	.	.	voice
=96	=96	=96	=96	=96	=96	=96
4r	.	2Dm	D:min (D F A)	newline	160.296	voice
8r	.	.	.	.	.	.
[8d	_	.	.	.	.	.
4r	.	2CM	C:maj (C E G)	.	.	voice
12d	_	.	.	.	.	.
6c	_	.	.	.	.	.
=97	=97	=97	=97	=97	=97	=97
8d	_	2B-M	B-:maj (B- D F)	.	.	voice
8d	_	.	.	.	.	.
4d	_	.	.	.	.	.
=95	=95	=95	=95	=95	=95	=95
4d]	_	2CM	C:maj (C E G)	.	.	voice
4r	.	.	.	.	.	.
=98	=98	=98	=98	=98	=98	=98
2r	.	2Dm	D:min (D F A)	.	.	voice
4D	_	2CM	C:maj (C E G)	.	.	voice
4r	.	.	.	.	.	.
=99	=99	=99	=99	=99	=99	=99
2r	.	2B-M	B-:maj (B- D F)	.	.	voice
=96	=96	=96	=96	=96	=96	=96
4r	.	2CM	C:maj (C E G)	.	.	voice
12d	_	.	.	.	.	.
6c	_	.	.	.	.	.
=100	=100	=100	=100	=100	=100	=100
*	*	*>_fadeout	*>_fadeout	*>_fadeout	*>_fadeout	*>_fadeout
8d	_	2Dm	D:min (D F A)	newline	166.714	voice
8d	_	.	.	.	.	.
8d	_	.	.	.	.	.
[8d	_	.	.	.	.	.
=97	=97	=97	=97	=97	=97	=97
4d]	_	2CM	C:maj (C E G)	.	.	voice
4r	.	.	.	.	.	.
=101	=101	=101	=101	=101	=101	=101
2r	.	2B-M	B-:maj (B- D F)	.	.	voice
=98	=98	=98	=98	=98	=98	=98
4r	.	2CM	C:maj (C E G)	.	.	voice
12d	_	.	.	.	.	.
[6c	_	.	.	.	.	.
=102	=102	=102	=102	=102	=102	=102
8c]	_	2Dm	D:min (D F A)	.	.	voice
8d	_	.	.	.	.	.
8d	_	.	.	.	.	.
8d	_	.	.	.	.	.
=99	=99	=99	=99	=99	=99	=99
2d	_	2CM	C:maj (C E G)	.	.	voice
=103	=103	=103	=103	=103	=103	=103
2r	.	2B-M	B-:maj (B- D F)	.	.	voice
=100	=100	=100	=100	=100	=100	=100
1r	.	2CM	C:maj (C E G)	.	.	voice
=104	=104	=104	=104	=104	=104	=104
.	.	2Dm	D:min (D F A)	newline	173.013	voice
=101	=101	=101	=101	=101	=101	=101
4r	.	2CM	C:maj (C E G)	.	.	voice
12d	_	.	.	.	.	.
[6c	_	.	.	.	.	.
=105	=105	=105	=105	=105	=105	=105
8c]	_	2B-M	B-:maj (B- D F)	.	.	voice
8d	_	.	.	.	.	.
8d	_	.	.	.	.	.
8d	_	.	.	.	.	.
=102	=102	=102	=102	=102	=102	=102
2d	_	2CM	C:maj (C E G)	.	.	voice
=106	=106	=106	=106	=106	=106	=106
2r	.	2Dm	D:min (D F A)	.	.	voice
=103	=103	=103	=103	=103	=103	=103
1r	.	2CM	C:maj (C E G)	.	.	voice
=107	=107	=107	=107	=107	=107	=107
.	.	2B-M	B-:maj (B- D F)	.	.	voice
=104	=104	=104	=104	=104	=104	=104
4r	.	2CM	C:maj (C E G)	.	.	voice
12d	_	.	.	.	.	.
[6c	_	.	.	.	.	.
8c]	_	1r;	r	.	176.75	r
8d	_	.	.	.	.	.
8d	_	.	.	.	.	.
8d	_	.	.	.	.	.
=105	=105	=105	=105	=105	=105	=105
2d	_	.	.	.	.	.
2r	.	1r;	r	.	179.984	r
=106	=106	=106	=106	=106	=106	=106
1r	.	.	.	.	.	.
*	*	*	*	*	*-	*-	*-	*-	*-
.	.
=107	=107
4r	.
12d	_
[6c	_
8c]	_
8d	_
8d	_
8d	_
=108	=108
2d	_
2r	.
=109	=109
1r	.
r;	.
r;	.
*-	*-
!!!BillboardChartDate: 1967/01/07
!!!BillboardPeak: 11
!!!BillboardWeeksOnChart: 14
!!!COC: The Electric Prunes
!!!ENC: Nathaniel Condit-Schultz
!!!EST: Awating manual error checking and editing.
!!!OTL: I Had Too Much To Dream (Last Night)
!!!RDF**chordsym: original McGill chord annotation + (implied pitch class set, with bass pitch in first position)
!!!RDF**harmony: **recip + pitch class of root + harmonic quality
!!!RDF**leadinstrument: original McGill primary instrumentation annotation
!!!RDF**phrase: newline = linebreak in original McGill transcription
!!!RDF**timestamp: McGill audio timestamp in seconds
!!!RDT: 2017/01/12/
!!!SampleActualRank: 47
!!!SampleID#: 0134
!!!SampleTargetRank: 49
